X: 10602
T: KINRARA STRATHSPEY
C: By Marshall
R: strathspey
B: K\"ohler's Violin Repository, v.1, 1885 p.60 #2
F: http://www.archive.org/details/klersviolinrepos01edin
Z: 2011 John Chambers <jc:trillian.mit.edu>
M: C|
L: 1/16
K: Bb
uF2 |\
(.B3.c)(B2d2) F2B2 GFED | BF3 B3d cC3-"_>"C2uA2 |\
(.B3.c) (B2d2) F2B2 GFED | Eg3 f3e dB3-"_>"B2 :|
uf2 |\
d2f2 edcB b2B2e2g2 | f3g edcB dc3- c2de |\
f2B2d2B2 g2B2e2g2 | F2B2 (dcBc) (d2B2)B2d2 |
f2ga (b2B2) g2B2f2B2 | (.e3.c) (edcB) A2c2{dcB}c2d2 |\
BF3 GB3 FB3 GFED | Eg3 {g}f3"^Segue Reel."e dB3"^D.C.""_>"B2 |]

%%sep 2 1 500

